X:1
T:Minuet in C (Fragment)
T:Minuet in C (Fragment)
T:K. 15rr
T:W.A. Mozart
C:W.A. Mozart
%%score { 1 | 2 }
L:1/8
M:3/4
K:C
V:1 treble nm="Piano" snm="Pno."
V:2 bass 
V:1
 ce G2 TA2 | G6 | ce G2 TA2 | G2 z2 z2 | ge d2 ec | B2 cA G2 |{d} cB/A/ TA4 | G6 :: Gg G2 A2 | %9
 _BA G2 z2 | _b2 agfe | f4 z2 | x6 | %13
V:2
 C,2 E,2 F,2 | C,CB,CG,E, | C,2 E,2 F,2 | C,CB,CG,E, | C2 B,2 ^F,2 | G,2 D,2 E,2 | C,2 D,2 D,,2 | %7
 G,,2 D,2 G,2 :: G,2 G,2 A,2 | _B,A, G,2 z2 | ^C,6 | D,DA,F, D,C, | x6 | %13

